X: 70
M: 2/4
L: 1/16
K: D
f2 |\
egec d2f2 | egec d2A2 |\
egec d2f2 | egec d2A2 |\
|: g2 |\
fafd fafd | gbgb d2zg |\
fafd fafd | edcB A2zg |\
fafd fafd | gbgb e2zg |\
fafd egec | d6 :|


